resources/haticons/SVG/new-tab.svg

<!-- Generated by IcoMoon.io -->
<svg version="1.1" xmlns="http://www.w3.org/2000/svg" width="24" height="24" viewBox="0 0 24 24">
<title>new-tab</title>
<path d="M4.5 1.5v18h18v-18h-18zM21 18h-15v-15h15v15zM3 21v-15.75l-1.5-1.5v18.75h18.75l-1.5-1.5h-15.75z"></path>
<path d="M8.25 6l3.75 3.75-4.5 4.5 2.25 2.25 4.5-4.5 3.75 3.75v-9.75z"></path>
</svg>

<svg xmlns="http://www.w3.org/2000/svg" width="24" height="24"><path d="M4.5 1.5v18h18v-18h-18zM21 18H6V3h15v15zM3 21V5.25l-1.5-1.5V22.5h18.75l-1.5-1.5H3z"/><path d="M8.25 6L12 9.75l-4.5 4.5 2.25 2.25 4.5-4.5L18 15.75V6z"/></svg>
